icon-svg/rocketleague.svg

<?xml version="1.0" encoding="UTF-8"?>
<svg width="24px" fill="#44739e" height="24px" viewBox="0 0 22.5 9.5" version="1.1" xmlns="http://www.w3.org/2000/svg" xmlns:xlink="http://www.w3.org/1999/xlink">
            <path d="m 11.553261,2.2368223 c 0,0 1.136558,0.237304 1.450881,0.319528 0.732623,0.191645 1.505003,0.342424 1.613248,0.388219 0.195694,0.08279 0.974192,0.6244827 0.974192,0.6244827 0,0 0.884861,0.622974 0.82848,0.670278 -0.15179,0.127357 -1.159455,0.435057 -1.307249,0.395506 C 14.781516,4.546176 12.78141,4.076965 12.606555,4.035333 12.4317,3.993693 11.748933,3.802192 11.37008,3.677296 10.991227,3.552399 10.046177,3.2276683 10.046177,3.2276683 c 0,0 -0.01666,0.01666 0.08326,-0.06661 0.09992,-0.08326 1.128232,-0.886766 1.128232,-0.886766 0,0 0.06245,-0.09992 0.295589,-0.03747 z M 19.986596,7.514633 A 1.3070648,1.3070648 0 0 1 18.679532,8.821696 1.3070648,1.3070648 0 0 1 17.372466,7.514633 1.3070648,1.3070648 0 0 1 18.679532,6.207568 1.3070648,1.3070648 0 0 1 19.986596,7.514633 Z M 6.0445709,7.224351 A 1.6382109,1.5620152 0 0 1 4.40636,8.786365 1.6382109,1.5620152 0 0 1 2.7681492,7.224351 1.6382109,1.5620152 0 0 1 4.40636,5.662335 1.6382109,1.5620152 0 0 1 6.0445709,7.224351 Z M 0.11425277,4.7945625e-4 C 0.07539277,-0.00276054 0.03330657,0.01020946 0.01387715,0.04582946 c -0.0161919,0.032383 -0.0194171,0.08741 -0.003231,0.1197934 0.003242,0.00647 0.006442,0.00971 0.009674,0.016192 0.0194305,0.035621 0.0420985,0.07127 0.0647676,0.1068907 0.0550519,0.084197 0.10686545,0.1715817 0.16191722,0.2557787 0.061528,0.100389 0.12632101,0.1975898 0.18784931,0.2947398 l 0.1554026,0.23313504 c 0.1297464,0.1836038 0.75823062,0.093833 1.63738792,0.1339612 0.1886966,0.3610493 0.9241931,1.141959 0.9241931,1.141959 0,0 -0.5214003,10e-7 -1.3536532,0.420985 -0.83225292,0.420984 0.029158,0.9715027 0.029158,0.9715027 l 0.00967,1.434549 v 0.534327 h 0.6444491 l 0.025237,0.01009 C 2.1515874,6.121407 1.9374609,6.638151 1.9374609,7.20254 c 0,1.279144 1.0945376,2.315417 2.4514014,2.315417 1.3334425,0 2.4141493,-1.001426 2.4511488,-2.250017 C 7.0916272,7.25262 7.3772275,7.2446 7.3811054,7.2446 7.730846,7.2349 8.0870526,7.25756 8.4367928,7.2608 c 0.077718,0 0.1554408,0.0033 0.2266846,0.02916 0.3011649,0.113342 0.4468674,0.501943 0.7512715,0.631477 0.171631,0.07449 0.365984,0.07451 0.553806,0.07451 0.5505181,-0.0032 1.1398501,0.02264 1.6644601,-0.187848 0.187823,-0.07449 0.372461,-0.158706 0.553807,-0.252617 0.09392,-0.04857 0.187813,-0.09713 0.278485,-0.152177 0.100389,-0.05829 0.168407,-0.129534 0.288226,-0.129534 0.04857,0 0.09386,-0.0032 0.142437,-0.0032 0.148963,-0.0032 0.297953,-0.0033 0.446916,-0.0065 0.420984,-0.0065 0.838758,-0.01294 1.256504,-0.01942 0.3886,-0.0032 0.777203,-0.0097 1.165802,-0.0162 0.136012,-0.0032 0.27201,-0.0032 0.40802,-0.0064 h 0.272033 l 0.116,0.009 c -0.01505,0.09561 -0.02536,0.192653 -0.02536,0.29221 0,1.094558 0.942374,1.981905 2.101699,1.981905 1.063391,0 1.942012,-0.747251 2.08051,-1.715501 0.08029,0.03223 0.161192,0.06227 0.241357,0.0931 0.129533,0.05182 0.262358,0.100369 0.391891,0.152177 0,0 0.297903,0.145751 0.443628,0.0907 0.145725,-0.05506 0.365958,-0.705985 0.365958,-0.705985 0.03239,-0.09067 0.04532,-0.187799 0.06799,-0.281711 0.0032,-0.01296 0.0065,-0.02919 0.01297,-0.0389 0.01943,-0.02914 0.08419,-0.03883 0.113343,-0.07123 0.03239,-0.03563 0.05502,-0.07775 0.07444,-0.123081 0.03239,-0.07449 0.05829,-0.155455 0.06476,-0.239651 0.0097,-0.08743 0.0065,-0.181297 0.0065,-0.271971 -0.0032,-0.07449 0.0032,-0.152239 -0.03239,-0.217007 -0.06153,-0.113437 -0.171683,-0.106923 -0.278549,-0.106923 h -0.09715 c -0.0097,0 -0.0421,0.0064 -0.04857,-0.0033 -0.0065,-0.0032 -0.0064,-0.0097 -0.0097,-0.0162 -0.0259,-0.06476 -0.314133,-0.184549 -0.385376,-0.22017 -0.09392,-0.04857 -0.08095,-0.03565 -0.100378,-0.04212 -0.02914,-0.0097 -0.05833,-0.02266 -0.08747,-0.03561 -0.21373,-0.08743 -0.424211,-0.178133 -0.634702,-0.268807 -0.0097,-0.0032 -0.0194,-0.0064 -0.02587,-0.0129 -0.0065,-0.0065 -0.013,-0.01944 -0.01948,-0.02916 C 20.726276,5.334055 20.680989,5.230402 20.606505,5.13973 20.541745,5.06201 20.467231,4.994029 20.386273,4.938977 c -0.08096,-0.05506 -0.16837,-0.09389 -0.26552,-0.116568 -0.08096,-0.01943 -0.165206,-0.03566 -0.246164,-0.05509 -0.15544,-0.03563 -0.31083,-0.06798 -0.466272,-0.103602 -0.168393,-0.03563 -0.333549,-0.0745 -0.501943,-0.110115 -0.136009,-0.02915 -0.268782,-0.05827 -0.404793,-0.08741 -0.05829,-0.01296 -0.119819,-0.03243 -0.178108,-0.03568 -0.03239,-0.0032 -0.200791,0.0098 -0.352993,-0.0032 -0.148964,-0.0162 -0.223458,-0.04206 -0.223458,-0.04206 0,0 -0.391865,-0.184612 -0.511684,-0.236425 C 16.701024,3.915616 16.568249,3.714811 16.101929,3.361833 15.878484,3.1934393 15.625929,2.9958993 15.120748,2.7303563 13.006114,1.6131292 11.597391,1.5904963 11.60063,1.5710663 11.60713,1.5386833 11.60393,1.4868563 11.58121,1.46095 11.57801,1.45448 11.56827,1.447997 11.56179,1.444758 11.448447,1.373514 11.335117,1.3022455 11.218537,1.240717 11.182907,1.221286 10.846102,1.0367269 10.852579,1.169498 c 0.0097,0.2007771 -0.01297,0.2622933 -0.01297,0.2622933 l -1.3082401,-0.00644 c 0,0 -0.126335,-0.00651 -0.152241,-0.022706 -0.1457159,-0.097146 0.119817,-0.63792484 0.213728,-0.81603344 0.09392,-0.1781083 -0.05826,-0.1943006 -0.05826,-0.1943006 0,0 -1.7714003,0.1068905 -1.9527471,0.1068905 -0.1813471,-6e-7 -0.1975265,0.071218 -0.1975265,0.071218 0,0 -0.02917,0.3270984 -0.00974,0.43072524 0.019431,0.100389 0.1943262,0.097112 0.3173831,0.1392109 0.084197,0.029145 0.055052,0.1554657 0,0.2040409 -0.00324,0.00324 -0.00971,0.00644 -0.016192,0.00967 -0.093912,0.051813 -0.2007774,0.074495 -0.3076428,0.077732 -0.1651527,0.00324 -0.3270454,0.012967 -0.4922009,0.029158 -0.2040175,0.019434 -0.408072,0.051792 -0.6056107,0.1036055 -0.1327719,0.035622 -0.2655443,0.080971 -0.3886014,0.1424998 -0.074482,0.038861 -0.152177,0.08421 -0.2169438,0.1425 -0.01943,0.019431 -0.038886,0.03565 -0.058316,0.058317 -0.01943,0.01943 -0.035597,0.058255 -0.055026,0.074439 -0.00324,0.0032 -0.00973,0.00329 -0.012967,0.00649 -0.1586786,0.080959 -0.3173708,0.1489632 -0.4825261,0.2104912 -0.1586785,0.05829 -0.3400139,0.07445 -0.5051692,0.07445 -0.087436,0 -0.1748705,-0.0065 -0.2590676,-0.01942 -0.07771,-0.0097 -0.1651704,-0.02265 -0.236414,-0.05504 C 3.9775724,2.1637073 3.9128056,2.1053673 3.8448003,2.0503143 3.776795,1.9952624 3.7055515,1.943449 3.6343079,1.8883969 3.4885827,1.7718172 3.3299032,1.6585126 3.1971314,1.5225022 3.1432192,1.4674901 3.0827573,1.3771167 3.024209,1.2830418 c 0.042114,0.00611 0.081607,0.00899 0.1243472,0.016003 0.087436,0.012954 0.1716322,0.02917 0.2590676,0.042124 0.07772,0.012953 0.1522531,0.022656 0.229973,0.035609 0.058289,0.00971 0.1133168,0.019392 0.1683686,0.025868 0.035621,0.00647 0.074482,0.012953 0.1133421,0.016192 0.025907,0.00324 0.055052,0.0065 0.080958,0.00974 0.012953,0.00324 0.025882,0.00646 0.038834,0.00323 0.00971,-0.00324 0.022669,-0.00649 0.032383,-0.012967 0.045337,-0.022669 0.090712,-0.045312 0.1360484,-0.071219 0.061528,-0.035621 0.1262702,-0.071256 0.1845604,-0.1101164 0.022668,-0.016192 0.045337,-0.032371 0.064768,-0.051801 0.00971,-0.00971 0.019455,-0.016204 0.025931,-0.029157 0.00647,-0.012953 0.00324,-0.032396 0,-0.04535 -0.00324,-0.012953 -0.0097,-0.025907 -0.019418,-0.032383 l -0.029157,-0.00968 c -0.035621,-0.00971 -0.071268,-0.016211 -0.1068898,-0.025926 -0.022668,-0.00648 -0.04855,-0.012941 -0.071218,-0.019417 -0.029145,-0.00971 -0.058328,-0.016167 -0.087473,-0.022643 -0.032383,-0.00972 -0.067993,-0.016217 -0.100376,-0.025932 -0.03886,-0.00971 -0.074482,-0.019443 -0.1133421,-0.029158 -0.042098,-0.012953 -0.08421,-0.022668 -0.1263081,-0.032383 -0.045337,-0.00971 -0.090648,-0.022668 -0.1359852,-0.032383 -0.048575,-0.012953 -0.09715,-0.022656 -0.1457255,-0.035609 L 3.3914321,0.80684016 C 3.3363802,0.79388686 3.2845667,0.78089556 3.2295148,0.76794216 3.1712247,0.75498886 3.116198,0.73883506 3.0611463,0.72588156 3.002856,0.71292826 2.9477789,0.69671126 2.8894887,0.68375786 2.8311985,0.67080456 2.7729587,0.65458746 2.7146686,0.64163416 2.6563788,0.62544236 2.5948499,0.61253956 2.5365599,0.59634776 2.4782697,0.58015606 2.416741,0.56719006 2.358451,0.55099836 2.2969225,0.53480656 2.2385815,0.52184066 2.177053,0.50564896 2.118763,0.48945726 2.0572342,0.47649116 1.9989441,0.46029946 1.9374157,0.44410776 1.8791252,0.43114176 1.8208351,0.41494996 1.7625451,0.40199666 1.7043051,0.38584276 1.6460151,0.37288936 1.5909634,0.35993606 1.532635,0.34371906 1.4775832,0.33076566 1.4225315,0.31457406 1.367492,0.30165846 1.3124403,0.28870506 1.2573885,0.27575176 1.2055622,0.26276046 1.1537487,0.24980706 c -0.048575,-0.009715 -0.100376,-0.0226557 -0.1489511,-0.0356092 -0.048575,-0.0129534 -0.0939247,-0.0226558 -0.14249992,-0.0356091 -0.0420983,-0.009715 -0.0874353,-0.022668 -0.1295337,-0.0323828 -0.0388605,-0.009715 -0.0809339,-0.0194428 -0.1197935,-0.0291576 -0.0356218,-0.00971 -0.0712686,-0.016218 -0.1068906,-0.025931 -0.032383,-0.00647 -0.061541,-0.016166 -0.093925,-0.022643 -0.029145,-0.00647 -0.055052,-0.012941 -0.080959,-0.019418 -0.022669,-0.00647 -0.042098,-0.00971 -0.0647673,-0.016192 -0.0161919,-0.00647 -0.0323828,-0.00972 -0.0485747,-0.012967 -0.009715,-0.00324 -0.0193801,-0.00321 -0.0290948,-0.00644 -0.003231,0 -0.006504,-0.00329 -0.009746,-0.00329 -0.022668,-0.00647 -0.0453371,-0.009670004 -0.0647676,-0.009670004 z"/>

</svg>

<svg xmlns="http://www.w3.org/2000/svg" fill="#44739e" viewBox="0 0 22.5 9.5"><path d="M11.5533 2.2368s1.1365.2373 1.4508.3196c.7327.1916 1.505.3424 1.6133.3882.1957.0828.9742.6245.9742.6245s.8848.623.8285.6702c-.1518.1274-1.1595.435-1.3073.3955-.3313-.0886-2.3314-.5578-2.5062-.5995-.1749-.0416-.8577-.2331-1.2365-.358-.3789-.1249-1.324-.4496-1.324-.4496s-.0166.0166.0833-.0666c.1-.0833 1.1283-.8868 1.1283-.8868s.0624-.1.2956-.0375m8.4333 5.2778a1.307 1.307 0 0 1-1.307 1.3071 1.307 1.307 0 0 1-1.3071-1.307 1.307 1.307 0 0 1 1.307-1.3071 1.307 1.307 0 0 1 1.3071 1.307m-13.942-.2902a1.6382 1.562 0 0 1-1.6382 1.562 1.6382 1.562 0 0 1-1.6383-1.562 1.6382 1.562 0 0 1 1.6383-1.562 1.6382 1.562 0 0 1 1.6382 1.562M.1143.0004C.0753-.0027.0333.0103.0139.0459-.0023.0782-.0055.1332.0106.1656.014.1721.0171.1753.0203.1818a2 2 0 0 0 .0648.107C.14.3728.192.4602.247.5444.3085.6449.3733.742.4349.8392l.1554.2332c.1297.1836.7582.0938 1.6373.134.1887.361.9242 1.1419.9242 1.1419s-.5214 0-1.3536.421c-.8323.421.0291.9715.0291.9715l.0097 1.4345v.5343h.6445l.0252.0101c-.3551.4017-.5692.9185-.5692 1.4828 0 1.2792 1.0945 2.3155 2.4514 2.3155 1.3334 0 2.4141-1.0015 2.4511-2.25.2516-.0154.5372-.0234.5411-.0234.3497-.0097.706.013 1.0557.0162.0777 0 .1554.0033.2267.0292.3011.1133.4468.5019.7512.6314.1717.0745.366.0745.5539.0745.5505-.0032 1.1398.0227 1.6644-.1878a6 6 0 0 0 .5538-.2526c.094-.0486.1878-.0971.2785-.1522.1004-.0583.1684-.1295.2882-.1295.0486 0 .0939-.0032.1425-.0032.149-.0032.298-.0033.4469-.0065l1.2565-.0194a137 137 0 0 0 1.1658-.0162c.136-.0032.272-.0032.408-.0064h.272l.116.009a1.9 1.9 0 0 0-.0253.2922c0 1.0945.9424 1.9819 2.1017 1.9819 1.0634 0 1.942-.7473 2.0805-1.7155.0803.0322.1612.0622.2414.093.1295.0519.2623.1004.3918.1522 0 0 .298.1458.4437.0907.1457-.055.366-.706.366-.706.0323-.0906.0452-.1877.068-.2817.0031-.013.0064-.0291.0129-.0389.0194-.029.0842-.0388.1133-.0712.0324-.0356.055-.0777.0745-.123.0324-.0746.0583-.1555.0647-.2397.0097-.0874.0065-.1813.0065-.272-.0032-.0745.0032-.1522-.0324-.217-.0615-.1134-.1716-.107-.2785-.107h-.0972c-.0097 0-.042.0065-.0485-.0032-.0065-.0032-.0064-.0097-.0097-.0162-.026-.0648-.3142-.1846-.3854-.2202-.094-.0486-.081-.0356-.1004-.0421a1 1 0 0 1-.0875-.0356c-.2137-.0874-.4242-.1781-.6347-.2688-.0097-.0032-.0194-.0064-.0258-.013-.0065-.0064-.013-.0194-.0195-.029-.055-.107-.1003-.2106-.1748-.3013a1.08 1.08 0 0 0-.2202-.2007.78.78 0 0 0-.2655-.1166c-.081-.0194-.1653-.0357-.2462-.055-.1555-.0357-.3108-.068-.4663-.1037-.1684-.0356-.3335-.0745-.502-.1101-.136-.0291-.2687-.0583-.4047-.0874-.0583-.013-.1198-.0324-.1781-.0357-.0324-.0032-.2008.0098-.353-.0032-.149-.0162-.2235-.042-.2235-.042s-.3918-.1847-.5117-.2365c-.5343-.2332-.667-.434-1.1334-.787-.2234-.1684-.476-.3659-.9812-.6314-2.1146-1.1173-3.5233-1.1399-3.52-1.1593.0064-.0324.0032-.0842-.0195-.1101-.0032-.0065-.013-.013-.0194-.0162-.1134-.0713-.2267-.1426-.3433-.204-.0356-.0195-.3724-.204-.366-.0713.0098.2008-.0129.2623-.0129.2623l-1.3082-.0064s-.1264-.0066-.1523-.0228c-.1457-.0971.1198-.6379.2138-.816S9.5346.3923 9.5346.3923 7.7632.4992 7.5818.4992c-.1813 0-.1975.0712-.1975.0712s-.0291.3271-.0097.4307c.0194.1004.1943.0972.3174.1393.0842.0291.055.1554 0 .204-.0033.0032-.0097.0064-.0162.0097-.094.0518-.2008.0745-.3077.0777a6.3 6.3 0 0 0-.4922.0292c-.204.0194-.408.0517-.6056.1036-.1328.0356-.2655.081-.3886.1425-.0745.0388-.1522.0842-.217.1425-.0194.0194-.0388.0356-.0582.0583-.0195.0194-.0356.0582-.055.0744-.0033.0032-.0098.0033-.013.0065a4.5 4.5 0 0 1-.4826.2105c-.1586.0583-.34.0744-.5051.0744a1.7 1.7 0 0 1-.2591-.0194c-.0777-.0097-.1652-.0226-.2364-.055-.0777-.0356-.1425-.094-.2105-.149s-.1392-.1069-.2105-.1619c-.1457-.1166-.3044-.2299-.4372-.3659-.0539-.055-.1143-.1454-.1729-.2395.0421.0062.0816.009.1244.016.0874.013.1716.0292.259.0422.0777.013.1523.0226.23.0356.0583.0097.1133.0194.1684.0258.0356.0065.0744.013.1133.0162.026.0033.055.0065.081.0098.013.0032.0258.0064.0388.0032.0097-.0032.0227-.0065.0324-.013a2.7 2.7 0 0 0 .136-.0712c.0616-.0356.1263-.0712.1846-.11.0227-.0163.0453-.0325.0648-.0519.0097-.0097.0194-.0162.0259-.0292s.0032-.0323 0-.0453-.0097-.026-.0194-.0324l-.0292-.0097c-.0356-.0097-.0713-.0162-.1069-.0259-.0226-.0065-.0485-.013-.0712-.0194-.0291-.0097-.0583-.0162-.0875-.0227-.0323-.0097-.068-.0162-.1003-.0259-.0389-.0097-.0745-.0194-.1134-.0291-.042-.013-.0842-.0227-.1263-.0324C3.7833.904 3.738.891 3.6926.8813 3.644.8683 3.5955.8586 3.547.8457L3.3914.8068C3.3364.7938 3.2846.781 3.2295.768 3.1712.755 3.1162.739 3.0611.726 3.003.7129 2.9478.6967 2.8895.6838S2.773.6546 2.7147.6416c-.0583-.0162-.1199-.029-.1781-.0453C2.4783.5802 2.4167.5672 2.3585.551c-.0616-.0162-.12-.0292-.1814-.0454-.0583-.0161-.1199-.0291-.1782-.0453-.0615-.0162-.1198-.0292-.178-.0454C1.7624.402 1.7042.386 1.646.373 1.591.36 1.5326.3438 1.4776.3309a3 3 0 0 0-.1652-.042c-.055-.013-.1068-.026-.1587-.039a2.5 2.5 0 0 1-.1489-.0356C.9562.2012.9108.1915.8623.1786.8202.1689.7749.1559.7328.1462.6939.1365.6518.1268.613.117.5773.1073.5417.1008.506.0911.4738.0846.4446.075.4123.0685A3 3 0 0 1 .3312.049C.3085.0426.2891.0393.2664.0329A.27.27 0 0 0 .218.0199C.208.0167.1985.0167.1888.0135.1855.0135.1823.0102.179.0102A.24.24 0 0 0 .1142.0005z"/></svg>
